modules/hawcons-filled/icons/trash-can.svg

<?xml version="1.0" encoding="UTF-8" standalone="no"?>
<svg width="32px" height="32px" viewBox="0 0 32 32" version="1.1" xmlns="http://www.w3.org/2000/svg" xmlns:xlink="http://www.w3.org/1999/xlink" xmlns:sketch="http://www.bohemiancoding.com/sketch/ns">
    <!-- Generator: Sketch 3.0.3 (7891) - http://www.bohemiancoding.com/sketch -->
    <title>icon 27 trash can</title>
    <desc>Created with Sketch.</desc>
    <defs></defs>
    <g id="Page-1" stroke="none" stroke-width="1" fill="none" fill-rule="evenodd" sketch:type="MSPage">
        <g id="icon-27-trash-can" sketch:type="MSArtboardGroup" fill="#929292">
            <path d="M23,7 L21,7 L21,7 L21,5.0048815 C21,3.89761602 20.1041422,3 19.0026083,3 L13.9973917,3 C12.8942627,3 12,3.8938998 12,5.0048815 L12,7 L10,7 L6,7 L6,8 L8,8 L8,26.9931517 C8,28.6537881 9.33396149,30 11.0001262,30 L21.9998738,30 C23.6567977,30 25,28.6640085 25,26.9931517 L25,8 L27,8 L27,7 L23,7 L23,7 Z M12,10 L12,27 L13,27 L13,10 L12,10 L12,10 Z M16,10 L16,27 L17,27 L17,10 L16,10 L16,10 Z M20,10 L20,27 L21,27 L21,10 L20,10 L20,10 Z M14.0029293,4 C13.4490268,4 13,4.44266033 13,4.99895656 L13,7 L20,7 L20,4.99895656 C20,4.44724809 19.5621186,4 18.9970707,4 L14.0029293,4 L14.0029293,4 Z" id="trash-can" sketch:type="MSShapeGroup"></path>
        </g>
    </g>
</svg>

<svg width="32" height="32" viewBox="0 0 32 32" xmlns="http://www.w3.org/2000/svg"><path d="M23 7h-2V5.005A2.002 2.002 0 0 0 19.003 3h-5.006A1.999 1.999 0 0 0 12 5.005V7H6v1h2v18.993A2.998 2.998 0 0 0 11 30h11c1.657 0 3-1.336 3-3.007V8h2V7h-4zm-11 3v17h1V10h-1zm4 0v17h1V10h-1zm4 0v17h1V10h-1zm-5.997-6A.998.998 0 0 0 13 4.999V7h7V4.999A.994.994 0 0 0 18.997 4h-4.994z" fill="#929292" fill-rule="evenodd"/></svg>
